static/assets/img/icons/theme/media/repeat.svg

<svg height="24" viewBox="0 0 24 24" width="24" xmlns="http://www.w3.org/2000/svg"><g fill="none" fill-rule="evenodd"><path d="m0 0h24v24h-24z" opacity="0"/><g fill="#000"><path d="m12 8h-4c-2.209139 0-4 1.790861-4 4v1c0 1.6568542 1.34314575 3 3 3v2c-2.76142375 0-5-2.2385763-5-5v-1c0-3.3137085 2.6862915-6 6-6h4v-1.27200258c0-.10784694.0348702-.21280326.0994077-.29920857.1652483-.22124105.4785598-.26663211.6998009-.10138378l2.8570334 2.13396209c.0388939.02905042.0733497.06361021.1022829.10259138.1645814.22173763.1182471.53491107-.1034905.69949246l-2.8570334 2.1205897c-.0861858.06397009-.190669.09850851-.298001.09850851-.2761424 0-.5-.22385763-.5-.5z"/><path d="m12.0583175 16h3.9416825c2.209139 0 4-1.790861 4-4v-1c0-1.65685425-1.3431458-3-3-3v-2c2.7614237 0 5 2.23857625 5 5v1c0 3.3137085-2.6862915 6-6 6h-3.9416825v.9825492c0 .2761424-.2238576.5-.5.5-.107332 0-.2118152-.0345384-.298001-.0985085l-2.85703339-2.1205897c-.22173763-.1645814-.26807192-.4777548-.10349053-.6994925.02893318-.0389811.06338906-.0735409.10228293-.1025913l2.85703339-2.1339621c.2212411-.1652484.5345526-.1198573.699801.1013837.0645374.0864054.0994076.1913617.0994076.2992086z" opacity=".3"/></g></g></svg>

<svg width="24px" height="24px" viewBox="0 0 24 24" version="1.1" xmlns="http://www.w3.org/2000/svg" xmlns:xlink="http://www.w3.org/1999/xlink">
    <title>Icon For Repeat</title>
    <g stroke="none" stroke-width="1" fill="none" fill-rule="evenodd">
        <rect opacity="0" x="0" y="0" width="24" height="24"></rect>
        <path d="M12,8 L8,8 C5.790861,8 4,9.790861 4,12 L4,13 C4,14.6568542 5.34314575,16 7,16 L7,18 C4.23857625,18 2,15.7614237 2,13 L2,12 C2,8.6862915 4.6862915,6 8,6 L12,6 L12,4.72799742 C12,4.62015048 12.0348702,4.51519416 12.0994077,4.42878885 C12.264656,4.2075478 12.5779675,4.16215674 12.7992086,4.32740507 L15.656242,6.46136716 C15.6951359,6.49041758 15.7295917,6.52497737 15.7585249,6.56395854 C15.9231063,6.78569617 15.876772,7.09886961 15.6550344,7.263451 L12.798001,9.3840407 C12.7118152,9.44801079 12.607332,9.48254921 12.5,9.48254921 C12.2238576,9.48254921 12,9.25869158 12,8.98254921 L12,8 Z" fill="#000000"></path>
        <path d="M12.0583175,16 L16,16 C18.209139,16 20,14.209139 20,12 L20,11 C20,9.34314575 18.6568542,8 17,8 L17,6 C19.7614237,6 22,8.23857625 22,11 L22,12 C22,15.3137085 19.3137085,18 16,18 L12.0583175,18 L12.0583175,18.9825492 C12.0583175,19.2586916 11.8344599,19.4825492 11.5583175,19.4825492 C11.4509855,19.4825492 11.3465023,19.4480108 11.2603165,19.3840407 L8.40328311,17.263451 C8.18154548,17.0988696 8.13521119,16.7856962 8.29979258,16.5639585 C8.32872576,16.5249774 8.36318164,16.4904176 8.40207551,16.4613672 L11.2591089,14.3274051 C11.48035,14.1621567 11.7936615,14.2075478 11.9589099,14.4287888 C12.0234473,14.5151942 12.0583175,14.6201505 12.0583175,14.7279974 L12.0583175,16 Z" fill="#000000" opacity="0.3"></path>
    </g>
</svg>
